images/decor/about_line.svg

<svg width="1401" height="313" viewBox="0 0 1401 313" fill="none" xmlns="http://www.w3.org/2000/svg">
<path d="M1400.57 45.0296C1399.41 45.4199 1398.07 45.6281 1397.07 46.2005C1356.59 69.7742 1326.86 101.31 1304.86 138.284C1291.71 160.374 1279.77 183.011 1267.28 205.414C1259.11 220.089 1251.19 234.894 1239.31 247.774C1233.25 254.357 1226.16 260.003 1216.35 262.163C1204.16 264.842 1193.78 261.044 1184.64 254.487C1167.25 241.997 1162.28 225.397 1163.74 206.819C1165.94 178.536 1179.19 152.907 1190.24 126.757C1197.25 110.209 1204.16 93.5821 1210.13 76.7474C1215.1 62.6969 1215.83 48.23 1211.6 33.7892C1208.61 23.5375 1203.74 21.6381 1192.86 26.6078C1179.07 32.9045 1169.2 42.6879 1160.48 53.46C1147.94 69.0196 1139.83 86.4007 1132.83 104.12C1123.35 128.006 1114.61 152.074 1105.32 175.986C1097.62 195.813 1084.15 212.335 1064.29 224.486C1047.42 234.816 1028.29 239.734 1007.36 237.99C987.381 236.299 970.11 228.988 953.814 219.178C927.527 203.384 906.114 183.401 885.127 162.95C868.13 146.376 852.809 128.838 840.99 109.246C835.782 100.581 831.487 91.5265 827.009 82.5498C820.887 70.1905 810.896 60.3812 799.504 51.4565C796.458 49.0627 793.046 47.0071 789.848 44.7434C771.206 31.5515 751.012 29.7302 728.867 37.8222C707.302 45.7062 689.178 57.493 672.608 71.4394C646.199 93.6601 624.146 118.899 602.793 144.632C585.614 165.318 568.526 186.029 551.012 206.481C540.686 218.528 528.41 229.092 514.642 238.355C498.224 249.387 480.101 251.234 460.028 247.357C440.625 243.585 429.568 233.645 424.207 217.773C421.465 209.681 417.993 201.719 414.094 193.965C411.079 187.955 405.352 183.948 397.219 184.546C391.797 184.937 386.345 186.133 381.228 187.695C365.45 192.482 351.986 200.808 338.614 209.109C305.626 229.586 273.887 251.416 243.001 274.184C225.76 286.907 207.819 298.85 187.046 307.306C168.617 314.8 151.499 313.473 135.66 302.623C125.882 295.936 122.592 286.439 122.288 276.239C121.8 259.43 127.618 243.767 134.868 228.389C145.224 206.455 160.545 187.278 179.187 169.949C237.152 115.985 309.007 82.2115 391.31 63.6856C418.846 57.493 446.412 51.2483 472.608 41.569C480.466 38.6549 488.02 34.6739 494.752 30.1205C503.007 24.5523 502.337 18.6459 493.93 13.3379C480.314 4.72542 464.536 1.88929 448.148 2.85201C428.38 4.02289 408.642 6.10445 388.965 8.29009C374.374 9.9033 359.754 11.6986 345.437 14.4827C322.592 18.9061 304.012 29.9123 287.594 43.9108C269.592 59.2363 254.728 76.7214 239.528 93.9723C222.653 113.149 204.195 130.894 180.101 143.8C161.612 153.713 141.356 160.088 120.521 165.058C78.2123 175.179 45.2241 196.827 17.6883 225.163C12.632 230.341 9.28139 236.741 5.26068 242.622C4.68194 243.48 4.80378 244.703 4.28596 245.614C3.79861 246.473 2.91527 247.123 2.18423 247.878C1.60549 246.863 0.417551 245.718 0.630771 244.833C1.02675 243.038 1.91009 241.165 3.09803 239.63C9.31186 231.59 14.7337 222.899 22.2269 215.822C41.3253 197.764 63.0737 182.152 89.1778 171.953C103.128 166.515 118.054 162.924 132.644 158.735C154.606 152.464 175.471 144.476 193.625 131.883C210.195 120.408 223.872 106.67 236.634 92.203C252.778 73.9113 268.587 55.4375 287.898 39.3574C309.007 21.7942 333.984 11.4645 363.165 8.26407C380.527 6.36465 397.798 3.78871 415.16 2.1755C429.263 0.874528 443.518 -0.140233 457.713 0.0158843C472.09 0.172001 485.736 3.76269 497.219 11.7247C505.779 17.6571 506.235 24.6824 498.499 31.3954C490.488 38.3686 480.314 42.3236 469.897 45.8623C443.823 54.787 416.744 60.9015 389.726 67.1462C353.235 75.5766 317.749 86.4007 285.005 102.715C250.433 119.914 217.688 139.246 189.909 164.251C162.617 188.787 140.838 216.03 130.268 249.049C127.04 259.17 124.694 269.396 126.217 280.038C128.563 296.534 139.772 304.236 156.372 308.191C165.998 310.481 175.166 308.529 184.061 305.095C201.453 298.356 216.866 289.041 231.304 278.555C267.947 251.963 304.834 225.605 344.28 202.005C357.164 194.304 370.232 186.784 385.705 183.271C389.269 182.465 392.955 181.71 396.641 181.502C405.352 181.008 412.267 184.312 415.983 190.843C420.003 197.868 423.019 205.336 426.034 212.725C428.989 219.959 431.304 227.426 437.305 233.359C439.62 235.649 442.239 238.12 445.346 239.317C461.49 245.588 478.03 249.049 495.757 243.923C504.926 241.269 512.206 236.377 519.364 231.147C536.97 218.294 550.494 202.5 563.835 186.498C585.035 161.051 606.266 135.578 627.984 110.443C645.194 90.5378 664.719 72.2981 686.863 56.2961C701.91 45.4199 718.754 36.9896 737.822 32.0199C753.57 27.9088 768.435 29.3139 782.294 36.6514C800.661 46.3566 816.135 58.7419 826.644 75.0041C830.999 81.7432 833.71 89.2368 837.457 96.2881C849.367 118.665 865.084 138.96 884.213 157.252C898.011 170.47 911.749 183.818 926.613 196.125C943.183 209.863 961.337 222.223 983.025 229.742C1014.55 240.67 1046.5 234.972 1071.36 215.666C1090 201.173 1099.63 182.465 1107.12 162.43C1116.9 136.254 1127.04 110.183 1137.88 84.3191C1145.04 67.2763 1155.52 51.6126 1170.11 38.1865C1177.12 31.7337 1184.82 26.0354 1194.42 22.5488C1204.29 18.9581 1210.44 21.1437 1213.85 29.7042C1217.99 40.164 1218.42 50.9881 1216.96 61.8382C1213.82 85.464 1202.31 106.956 1193.17 129.073C1185.64 147.312 1177.88 165.526 1171.66 184.104C1168.47 193.705 1167.28 204.061 1167.19 214.104C1167.03 230.601 1174.13 244.755 1190.64 254.487C1204.62 262.709 1218.15 261.616 1230.39 251.625C1241.26 242.726 1248.42 231.668 1254.82 220.297C1266.7 199.221 1277.85 177.833 1289.73 156.783C1302.92 133.418 1317.6 110.729 1336.57 90.3296C1353.02 72.6363 1372.15 57.3629 1393.9 44.5093C1395.3 43.6766 1397.04 43.2603 1398.62 42.6358L1400.6 44.9776L1400.57 45.0296Z" fill="black"/>
</svg>

<svg viewBox="0 0 1401 313" fill="none" xmlns="http://www.w3.org/2000/svg"><path d="M1400.57 45.03c-1.16.39-2.5.6-3.5 1.17-40.48 23.57-70.21 55.11-92.21 92.08-13.15 22.1-25.09 44.73-37.58 67.13-8.17 14.68-16.09 29.48-27.97 42.36-6.06 6.59-13.15 12.23-22.96 14.4-12.19 2.67-22.57-1.13-31.71-7.68-17.39-12.5-22.36-29.1-20.9-47.67 2.2-28.28 15.45-53.91 26.5-80.06 7.01-16.55 13.92-33.18 19.89-50.01 4.97-14.05 5.7-28.52 1.47-42.96-2.99-10.25-7.86-12.15-18.74-7.18-13.79 6.3-23.66 16.08-32.38 26.85-12.54 15.56-20.65 32.94-27.65 50.66-9.48 23.89-18.22 47.95-27.51 71.87-7.7 19.82-21.17 36.34-41.03 48.5a92.32 92.32 0 0 1-56.93 13.5c-19.98-1.7-37.25-9-53.55-18.81-26.28-15.8-47.7-35.78-68.68-56.23-17-16.57-32.32-34.11-44.14-53.7-5.2-8.67-9.5-17.72-13.98-26.7-6.12-12.36-16.11-22.17-27.5-31.1-3.05-2.39-6.46-4.44-9.66-6.7-18.64-13.2-38.84-15.02-60.98-6.93-21.57 7.89-39.7 19.67-56.26 33.62-26.41 22.22-48.46 47.46-69.82 73.2-17.18 20.68-34.26 41.39-51.78 61.84-10.32 12.05-22.6 22.61-36.37 31.88-16.42 11.03-34.54 12.87-54.61 9-19.4-3.78-30.46-13.72-35.82-29.59a186.54 186.54 0 0 0-10.12-23.8c-3.01-6.01-8.74-10.02-16.87-9.42a73.53 73.53 0 0 0-16 3.14c-15.77 4.8-29.23 13.12-42.6 21.42a1449.82 1449.82 0 0 0-95.62 65.07c-17.24 12.73-35.18 24.67-55.95 33.13-18.43 7.49-35.55 6.16-51.39-4.69-9.78-6.68-13.07-16.18-13.37-26.38-.49-16.81 5.33-32.47 12.58-47.85 10.35-21.93 25.67-41.11 44.32-58.44 57.96-53.96 129.82-87.74 212.12-106.26 27.54-6.2 55.1-12.44 81.3-22.12 7.86-2.92 15.41-6.9 22.14-11.45 8.26-5.57 7.59-11.47-.82-16.78-13.62-8.61-29.4-11.45-45.78-10.49-19.77 1.17-39.5 3.25-59.19 5.44-14.59 1.61-29.2 3.4-43.52 6.2-22.85 4.42-41.43 15.42-57.85 29.42-18 15.33-32.86 32.81-48.06 50.06-16.88 19.18-35.34 36.92-59.43 49.83-18.49 9.91-38.74 16.29-59.58 21.26-42.3 10.12-75.3 31.77-102.83 60.1-5.06 5.18-8.4 11.58-12.43 17.46-.58.86-.46 2.08-.97 3-.5.85-1.37 1.5-2.1 2.26-.58-1.02-1.77-2.16-1.56-3.05.4-1.8 1.28-3.67 2.47-5.2 6.21-8.04 11.63-16.73 19.13-23.8 19.1-18.07 40.84-33.68 66.95-43.88 13.95-5.44 28.87-9.03 43.46-13.21 21.97-6.28 42.83-14.26 60.99-26.86 16.56-11.47 30.24-25.21 43-39.68 16.15-18.29 31.96-36.76 51.27-52.84 21.1-17.57 46.08-27.9 75.27-31.1 17.36-1.9 34.63-4.47 51.99-6.08 14.1-1.3 28.36-2.32 42.55-2.16 14.38.15 28.03 3.74 39.5 11.7 8.57 5.94 9.03 12.96 1.29 19.68-8.01 6.97-18.19 10.92-28.6 14.46-26.08 8.93-53.16 15.04-80.17 21.29-36.5 8.43-71.98 19.25-104.73 35.56-34.57 17.2-67.31 36.54-95.1 61.54-27.28 24.54-49.06 51.78-59.63 84.8-3.23 10.12-5.58 20.35-4.05 30.99 2.34 16.5 13.55 24.2 30.15 28.15 9.63 2.3 18.8.34 27.7-3.1 17.38-6.73 32.8-16.05 47.23-26.53 36.65-26.6 73.53-52.96 112.98-76.56 12.88-7.7 25.95-15.22 41.43-18.73a67.2 67.2 0 0 1 10.93-1.77c8.71-.5 15.63 2.81 19.34 9.34 4.02 7.03 7.04 14.5 10.05 21.88 2.96 7.24 5.27 14.7 11.28 20.64 2.31 2.29 4.93 4.76 8.04 5.96 16.14 6.27 32.68 9.73 50.4 4.6 9.18-2.65 16.46-7.54 23.61-12.77 17.61-12.86 31.13-28.65 44.48-44.65 21.2-25.45 42.43-50.92 64.14-76.06a344.43 344.43 0 0 1 58.88-54.14c15.05-10.88 31.9-19.31 50.96-24.28 15.75-4.11 30.61-2.7 44.47 4.63 18.37 9.7 33.85 22.1 44.35 38.35 4.36 6.74 7.07 14.24 10.82 21.29 11.9 22.38 27.62 42.67 46.75 60.96 13.8 13.22 27.54 26.57 42.4 38.88 16.57 13.73 34.73 26.1 56.41 33.61 31.53 10.93 63.48 5.23 88.34-14.07 18.64-14.5 28.27-33.2 35.76-53.24a2134.57 2134.57 0 0 1 30.76-78.11 130.83 130.83 0 0 1 32.23-46.13c7.01-6.46 14.71-12.15 24.31-15.64 9.87-3.6 16.02-1.4 19.43 7.15 4.14 10.46 4.57 21.29 3.11 32.14-3.14 23.62-14.65 45.12-23.79 67.23-7.53 18.24-15.29 36.46-21.51 55.03-3.19 9.6-4.38 19.96-4.47 30-.16 16.5 6.94 30.66 23.45 40.39 13.98 8.22 27.51 7.13 39.75-2.87 10.87-8.9 18.03-19.95 24.43-31.32 11.88-21.08 23.03-42.47 34.91-63.52 13.19-23.36 27.87-46.05 46.84-66.45 16.45-17.7 35.58-32.97 57.33-45.82 1.4-.83 3.14-1.25 4.72-1.87l1.98 2.34-.03.05Z" fill="#000"/></svg>
